X: 41027
T: Trip To Killarney, The
R: jig
M: 6/8
K: Dmajor
d2f agf|agf a2f|d2f agf|e2f gfe|
d2f agf|agf a2f|gbg faf|e2f gfe:|
fed dAF|DFA d2e|fed edB|e2f gfe|
fed dAF|DFA dAF|GBd AGF|E2G GFE:|
D2d AGF|AGF A2F|D2d AGF|E2F GFE|
D2d AGF|AGF A2F|GBd AGF|E2F GFE:|
d3 cBc|dAG FED|dcd Bcd|e2f gfe|
dfd cec|dAG FED|GBd AGF|1 E2G GFE:|2 EFG ABc||

